X:943
T:Reel 943
M:4/4
K:Amaj
L:1/8
 (3EFG |A2ED CA,CE| (3FGA Bd cAFG|A>A, (3A,A,A, CEEd|cdBG A2:| (3EFG |A2cA eAcA|GABA  (3GFE FG|A2ce e2cA|GABG AGFE|A2cA eAcA|GABA GEFG|ABcd efed|cdBG AGAG|
